X: 650
T: Adieu To Prince Edwards Isle
R: reel
M: 4/4
K: Dmixolydian
D2|G3AB2D2|=FE3D2C2|B,2D2G3F|G6cc|
(B2A2)B2c2|d2B2c2d2|G2GGF2E2|D6cc|
B2A2BBc2|dB3c2dd|G2GGF2E2|D6D2|
G3AB2D2|=FE3D2C2|B,D3G3F|G6||

